webapp/src/assets/icons/cloudproviders/aws/architecture_services/config.svg

<?xml version="1.0" encoding="UTF-8"?>
<svg width="40px" height="40px" viewBox="0 0 40 40" version="1.1" xmlns="http://www.w3.org/2000/svg" xmlns:xlink="http://www.w3.org/1999/xlink">
    <title>Icon-Architecture/32/Arch_AWS-Config_32</title>
    <g id="Icon-Architecture/32/Arch_AWS-Config_32" stroke="none" stroke-width="1" fill="none" fill-rule="evenodd">
        <path d="M29.7650006,24.0186113 L30.7097851,24.3523264 L30.1176667,26.0319256 C30.0455304,26.2343593 29.8551709,26.3666428 29.6447735,26.3666428 C29.6267394,26.3666428 29.6097072,26.3656407 29.5916732,26.3636364 L27.6770567,26.1591983 L27.7822554,25.1630637 L28.6899699,25.2592699 C28.2361127,24.6259127 27.5007236,24.2170365 26.6851831,24.2170365 C25.5159746,24.2170365 24.49705,25.0488189 24.263609,26.1952756 L23.2807525,25.9948461 C23.6103752,24.383393 25.0420795,23.214889 26.6851831,23.214889 C27.8423689,23.214889 28.885339,23.8021475 29.5225426,24.7070866 L29.7650006,24.0186113 Z M29.1077591,27.1843951 L30.0896137,27.3848246 C29.7599911,28.9952756 28.3282868,30.1647817 26.6851831,30.1647817 C25.5981298,30.1647817 24.6102638,29.6456693 23.9670489,28.8329277 L23.8468218,29.3770938 L22.8679728,29.1596278 L23.2627185,27.3828203 C23.3198263,27.1262706 23.5672938,26.958912 23.8247801,26.9959914 L25.633196,27.2655691 L25.4859178,28.2566929 L24.6954247,28.1394417 C25.1512858,28.7607731 25.8786597,29.1626342 26.6851831,29.1626342 C27.8553935,29.1626342 28.8733163,28.3308518 29.1077591,27.1843951 L29.1077591,27.1843951 Z M32.9981075,27.5431639 L32.4039853,27.5090909 C32.1434933,27.4920544 31.941111,27.6604152 31.8870088,27.8989263 C31.754759,28.4831782 31.5253256,29.0383679 31.20472,29.548461 C31.074474,29.7549034 31.1125459,30.0264853 31.2938885,30.1888332 L31.7377268,30.5846815 L30.5845486,31.7381532 L30.1908049,31.2962062 C30.0284983,31.1138153 29.7549816,31.0757337 29.5495937,31.2060129 C29.0396304,31.5277022 28.4855839,31.7581961 27.8994768,31.8904796 C27.6600245,31.9445956 27.4957141,32.1630637 27.5097406,32.4075877 L27.5428031,32.9978525 L25.912724,32.9978525 L25.9467884,32.4075877 C25.9618168,32.1620616 25.7965045,31.9435934 25.5580541,31.8894775 C24.9729489,31.7581961 24.4179005,31.5277022 23.9089391,31.2050107 C23.7015474,31.0757337 23.4300345,31.1128132 23.2677279,31.295204 L22.8719804,31.7381532 L21.7188022,30.5856836 L22.1616387,30.1908375 C22.344985,30.0274875 22.3830569,29.7569077 22.251809,29.5494631 C21.9312034,29.0413744 21.70177,28.4861847 21.5685183,27.8999284 C21.5174218,27.6614173 21.3180452,27.5020759 21.0525437,27.5090909 L20.4594234,27.5431639 L20.4594234,25.91267 L21.0545475,25.9457409 C21.3220528,25.9607731 21.5174218,25.7944166 21.5705221,25.5569077 C21.7037738,24.9726557 21.935211,24.417466 22.2558165,23.9103794 C22.3870645,23.7029349 22.3489925,23.4313529 22.1656462,23.2680029 L21.7188022,22.8701503 L22.8719804,21.7176807 L23.2697317,22.1626342 C23.4320383,22.3450251 23.7025493,22.3831067 23.909941,22.2528275 C24.4179005,21.9331424 24.971947,21.7036507 25.5580541,21.5713672 C25.7965045,21.5172513 25.9608149,21.2987831 25.9467884,21.0542591 L25.912724,20.4569792 L27.5428031,20.4569792 L27.5097406,21.0542591 C27.4957141,21.2997853 27.6600245,21.5172513 27.8994768,21.5723694 C28.484582,21.7036507 29.0376266,21.9331424 29.5445842,22.2538296 C29.7509741,22.385111 30.0244907,22.3470293 30.1857954,22.1636364 L30.5845486,21.7166786 L31.7377268,22.8701503 L31.2918847,23.2670007 C31.1095402,23.4303508 31.0714683,23.7019327 31.2027162,23.9093772 C31.5243237,24.417466 31.7537571,24.9716535 31.8860069,25.5559055 C31.9401091,25.7944166 32.1404876,25.9707946 32.4029834,25.9457409 L32.9981075,25.91267 L32.9981075,27.5431639 Z M33.8427029,25.0177523 C33.7425136,24.9235505 33.6062563,24.879456 33.4699989,24.8814603 L32.7546477,24.9225483 C32.6324168,24.5136722 32.4691083,24.1188261 32.2657241,23.7420186 L32.7997328,23.2649964 C32.9029278,23.173801 32.9630413,23.0435218 32.9670489,22.9052255 C32.9710564,22.7679313 32.9179561,22.6346457 32.8207726,22.5364352 L30.9181788,20.6333572 C30.8209952,20.5361489 30.6566848,20.4920544 30.5504842,20.4870437 C30.4122231,20.4900501 30.282979,20.5511811 30.1908049,20.6544023 L29.7108984,21.1915533 C29.3351887,20.9881174 28.9424468,20.8247674 28.5336747,20.7025054 L28.5737504,19.9839656 C28.5807637,19.8466714 28.5326728,19.7113815 28.437493,19.6121689 C28.3423133,19.510952 28.2110653,19.4548318 28.0738061,19.4548318 L25.3827229,19.4548318 C25.2444618,19.4548318 25.112212,19.510952 25.019036,19.6121689 C24.9238562,19.7123837 24.8747634,19.8466714 24.8827786,19.9849678 L24.9238562,20.7015032 C24.515084,20.8237652 24.1203384,20.9871152 23.7446287,21.1905512 L23.266726,20.6544023 C23.1745519,20.5511811 23.0443059,20.4900501 22.9070466,20.4870437 C22.7687855,20.4950608 22.6355338,20.5361489 22.5383502,20.6333572 L20.6357564,22.5364352 C20.537571,22.6346457 20.4844707,22.7679313 20.4884782,22.9052255 C20.4924858,23.0435218 20.5536012,23.173801 20.6557943,23.2649964 L21.1918067,23.7440229 C20.9894245,24.1198282 20.8251141,24.5136722 20.7028832,24.9225483 L19.9865301,24.8814603 C19.8532784,24.879456 19.7150173,24.9235505 19.6138261,25.0177523 C19.5146388,25.1119542 19.4575309,25.2442377 19.4575309,25.3815319 L19.4575309,28.0732999 C19.4575309,28.2115963 19.5146388,28.3428776 19.6138261,28.4380816 C19.7150173,28.5332856 19.8532784,28.5853973 19.9865301,28.5733715 L20.6998775,28.5332856 C20.8221084,28.9441661 20.9854169,29.3390122 21.1888011,29.7158196 L20.6557943,30.1908375 C20.5536012,30.2820329 20.4924858,30.4123121 20.4884782,30.5506084 C20.4844707,30.6879026 20.537571,30.8211883 20.6357564,30.9183966 L22.5383502,32.8224767 C22.6355338,32.919685 22.7647779,32.966786 22.9070466,32.9687903 C23.0443059,32.9647817 23.1745519,32.9046528 23.266726,32.8014316 L23.7416231,32.2682892 C24.1183346,32.4727273 24.5140822,32.6370795 24.9238562,32.7593414 L24.8827786,33.4708661 C24.8747634,33.6081603 24.9238562,33.7434503 25.019036,33.843665 C25.112212,33.9438797 25.2444618,34 25.3827229,34 L28.0738061,34 C28.2110653,34 28.3423133,33.9438797 28.437493,33.843665 C28.5326728,33.7434503 28.5807637,33.6081603 28.5737504,33.4708661 L28.5336747,32.7603436 C28.9434487,32.6370795 29.3381944,32.4737294 29.7159078,32.2692913 L30.1908049,32.8014316 C30.282979,32.9046528 30.4122231,32.9647817 30.5504842,32.9687903 C30.6596905,32.9697924 30.8219971,32.919685 30.9181788,32.8224767 L32.8207726,30.9183966 C32.9179561,30.8211883 32.9710564,30.6879026 32.9670489,30.5506084 C32.9630413,30.4123121 32.9029278,30.2820329 32.7997328,30.1908375 L32.266726,29.7138153 C32.4701102,29.3370079 32.6334187,28.9421618 32.7556496,28.5332856 L33.4699989,28.5733715 C33.6062563,28.5853973 33.7425136,28.5332856 33.8427029,28.4380816 C33.9428921,28.3428776 34,28.2115963 34,28.0732999 L34,25.3815319 C34,25.2442377 33.9428921,25.1119542 33.8427029,25.0177523 L33.8427029,25.0177523 Z M8.00189246,27.9730852 L17.0509852,27.9730852 L17.0509852,28.9752326 L7.50094623,28.9752326 C7.22442391,28.9752326 7,28.7507516 7,28.4741589 L7,6.50107373 C7,6.22448103 7.22442391,6 7.50094623,6 L30.6075921,6 C30.8841144,6 31.1085384,6.22448103 31.1085384,6.50107373 L31.1085384,17.9846815 L30.1066459,17.9846815 L30.1066459,7.00214746 L8.00189246,7.00214746 L8.00189246,27.9730852 Z M24.5491484,14.9782391 L24.0552154,14.9782391 L24.0552154,12.9699356 L24.5491484,12.9699356 L26.536903,12.9699356 L27.1009685,12.9699356 L27.1009685,14.9782391 L26.536903,14.9782391 L24.5491484,14.9782391 Z M25.0500946,11.9687903 L26.0359568,11.9687903 L26.0359568,9.98654259 L25.0500946,9.98654259 L25.0500946,11.9687903 Z M27.0378493,17.9846815 L27.0378493,15.9803865 L27.6019147,15.9803865 C27.878437,15.9803865 28.102861,15.7559055 28.102861,15.4793128 L28.102861,12.4688618 C28.102861,12.1922691 27.878437,11.9677881 27.6019147,11.9677881 L27.0378493,11.9677881 L27.0378493,9.48546886 C27.0378493,9.20787402 26.8144273,8.98439513 26.536903,8.98439513 L24.5491484,8.98439513 C24.2726261,8.98439513 24.0482022,9.20787402 24.0482022,9.48546886 L24.0482022,11.9677881 L23.5542692,11.9677881 C23.276745,11.9677881 23.0533229,12.1922691 23.0533229,12.4688618 L23.0533229,15.4793128 C23.0533229,15.7559055 23.276745,15.9803865 23.5542692,15.9803865 L24.0482022,15.9803865 L24.0482022,17.9846815 L25.0500946,17.9846815 L25.0500946,15.9803865 L26.0359568,15.9803865 L26.0359568,17.9846815 L27.0378493,17.9846815 Z M17.5198709,18.939728 L16.9507959,18.939728 L16.9507959,17.0296349 L17.5198709,17.0296349 L19.5557164,17.0296349 L20.0566626,17.0296349 L20.0566626,18.939728 L19.5557164,18.939728 L17.5198709,18.939728 Z M18.0208171,16.0274875 L19.0537682,16.0274875 L19.0537682,9.98654259 L18.0208171,9.98654259 L18.0208171,16.0274875 Z M20.0566626,21.930136 L20.0566626,19.9418754 L20.5576088,19.9418754 C20.8341311,19.9418754 21.058555,19.7173944 21.058555,19.4408017 L21.058555,16.5285612 C21.058555,16.2519685 20.8341311,16.0274875 20.5576088,16.0274875 L20.0566626,16.0274875 L20.0566626,9.48546886 C20.0566626,9.20787402 19.8322387,8.98439513 19.5557164,8.98439513 L17.5198709,8.98439513 C17.2433485,8.98439513 17.0189246,9.20787402 17.0189246,9.48546886 L17.0189246,16.0274875 L16.4498497,16.0274875 C16.1733274,16.0274875 15.9489035,16.2519685 15.9489035,16.5285612 L15.9489035,19.4408017 C15.9489035,19.7173944 16.1733274,19.9418754 16.4498497,19.9418754 L17.0189246,19.9418754 L17.0189246,25.8956335 L18.0208171,25.8956335 L18.0208171,19.9418754 L19.0547701,19.9418754 L19.0547701,21.930136 L20.0566626,21.930136 Z M10.9855282,13.0521117 L11.9723923,13.0521117 L11.9723923,9.98654259 L10.9855282,9.98654259 L10.9855282,13.0521117 Z M10.9855282,25.0307802 L11.9723923,25.0307802 L11.9723923,16.948461 L10.9855282,16.948461 L10.9855282,25.0307802 Z M9.9916509,14.0542591 L10.484582,14.0542591 L12.4733385,14.0542591 L12.9662696,14.0542591 L12.9662696,15.9453114 L12.4733385,15.9453114 L10.484582,15.9453114 L9.9916509,15.9453114 L9.9916509,14.0542591 Z M10.484582,26.0329277 L12.4733385,26.0329277 C12.7508627,26.0329277 12.9742848,25.8084467 12.9742848,25.531854 L12.9742848,16.9474588 L13.4672159,16.9474588 C13.7447401,16.9474588 13.9681621,16.72398 13.9681621,16.4463851 L13.9681621,13.5531854 C13.9681621,13.2755906 13.7447401,13.0521117 13.4672159,13.0521117 L12.9742848,13.0521117 L12.9742848,9.48546886 C12.9742848,9.20787402 12.7508627,8.98439513 12.4733385,8.98439513 L10.484582,8.98439513 C10.2070578,8.98439513 9.98363576,9.20787402 9.98363576,9.48546886 L9.98363576,13.0521117 L9.49070466,13.0521117 C9.21318045,13.0521117 8.98975843,13.2755906 8.98975843,13.5531854 L8.98975843,16.4463851 C8.98975843,16.72398 9.21318045,16.9474588 9.49070466,16.9474588 L9.98363576,16.9474588 L9.98363576,25.531854 C9.98363576,25.8084467 10.2070578,26.0329277 10.484582,26.0329277 L10.484582,26.0329277 Z" id="AWS-Config_Icon_32_Squid" fill="#E7157B"></path>
    </g>
</svg>

<svg width="40" height="40" xmlns="http://www.w3.org/2000/svg"><path d="m29.765 24.019.945.333-.592 1.68a.502.502 0 0 1-.526.332l-1.915-.205.105-.996.908.096a2.472 2.472 0 0 0-2.005-1.042 2.48 2.48 0 0 0-2.421 1.978l-.983-.2a3.487 3.487 0 0 1 3.404-2.78c1.157 0 2.2.587 2.838 1.492l.242-.688Zm-.657 3.165.982.2a3.488 3.488 0 0 1-3.405 2.78 3.474 3.474 0 0 1-2.718-1.331l-.12.544-.979-.217.395-1.777a.503.503 0 0 1 .562-.387l1.808.27-.147.99-.79-.117a2.474 2.474 0 0 0 1.99 1.024 2.48 2.48 0 0 0 2.422-1.979Zm3.89.36-.594-.035a.487.487 0 0 0-.517.39 5.286 5.286 0 0 1-.682 1.65.502.502 0 0 0 .089.64l.444.396-1.153 1.153-.394-.442a.502.502 0 0 0-.641-.09 5.25 5.25 0 0 1-1.65.684.5.5 0 0 0-.39.518l.033.59h-1.63l.034-.59a.5.5 0 0 0-.389-.519 5.198 5.198 0 0 1-1.65-.684.503.503 0 0 0-.64.09l-.396.443-1.153-1.152.443-.395a.5.5 0 0 0 .09-.642 5.272 5.272 0 0 1-.683-1.65.49.49 0 0 0-.516-.39l-.594.034v-1.63l.596.033a.483.483 0 0 0 .516-.39 5.27 5.27 0 0 1 .685-1.646.501.501 0 0 0-.09-.642l-.447-.398 1.153-1.152.398.445a.5.5 0 0 0 .64.09 5.26 5.26 0 0 1 1.648-.682.5.5 0 0 0 .389-.517l-.034-.597h1.63l-.033.597a.501.501 0 0 0 .39.518 5.208 5.208 0 0 1 1.645.682.5.5 0 0 0 .64-.09l.4-.447 1.153 1.153-.446.397a.502.502 0 0 0-.09.642 5.22 5.22 0 0 1 .684 1.647c.054.238.254.415.517.39l.595-.033v1.63Zm.845-2.526a.53.53 0 0 0-.373-.137l-.715.042a6.254 6.254 0 0 0-.49-1.181l.535-.477a.499.499 0 0 0 .02-.729l-1.902-1.903a.602.602 0 0 0-.368-.146.496.496 0 0 0-.36.167l-.48.538a6.197 6.197 0 0 0-1.176-.49l.04-.718a.5.5 0 0 0-.5-.53h-2.691a.493.493 0 0 0-.364.158.498.498 0 0 0-.136.373l.04.717a6.215 6.215 0 0 0-1.178.489l-.478-.537a.498.498 0 0 0-.36-.167.553.553 0 0 0-.369.146l-1.902 1.903a.501.501 0 0 0 .02.729l.536.479c-.203.376-.367.77-.49 1.179l-.715-.042a.537.537 0 0 0-.373.137.503.503 0 0 0-.156.364v2.691c0 .139.057.27.156.365a.49.49 0 0 0 .373.135l.713-.04c.122.411.285.806.489 1.183l-.533.475a.502.502 0 0 0-.02.727l1.902 1.904a.502.502 0 0 0 .728-.021l.476-.533c.376.205.772.37 1.182.491l-.041.712a.5.5 0 0 0 .5.529h2.69a.501.501 0 0 0 .5-.53l-.04-.71c.41-.123.805-.286 1.183-.49l.475.531a.5.5 0 0 0 .36.168.56.56 0 0 0 .367-.147l1.903-1.904a.5.5 0 0 0-.021-.727l-.533-.477c.203-.377.366-.772.489-1.18l.714.04a.503.503 0 0 0 .53-.5v-2.692a.5.5 0 0 0-.157-.364ZM8.002 27.973h9.049v1.002h-9.55a.501.501 0 0 1-.501-.5V6.5a.5.5 0 0 1 .5-.5h23.108a.5.5 0 0 1 .5.501v11.484h-1.001V7.002H8.002v20.971Zm16.547-12.995h-.494V12.97h3.046v2.008h-2.552Zm.501-3.01h.986v-1.98h-.986v1.982Zm1.988 6.017V15.98h.564a.5.5 0 0 0 .5-.5v-3.011a.501.501 0 0 0-.5-.501h-.564V9.485a.5.5 0 0 0-.501-.5h-1.988a.5.5 0 0 0-.5.5v2.483h-.495a.5.5 0 0 0-.5.5v3.011a.5.5 0 0 0 .5.501h.494v2.005h1.002V15.98h.986v2.005h1.002Zm-9.518.955h-.57v-1.91h3.106v1.91H17.52Zm.5-2.913h1.034v-6.04H18.02v6.04Zm2.037 5.903v-1.988h.5a.502.502 0 0 0 .502-.501v-2.912a.501.501 0 0 0-.501-.502h-.501V9.485a.5.5 0 0 0-.501-.5H17.52a.5.5 0 0 0-.501.5v6.542h-.57c-.276 0-.5.225-.5.502v2.912a.5.5 0 0 0 .5.5h.57v5.955h1.002v-5.954h1.034v1.988h1.002Zm-9.071-8.878h.986V9.987h-.986v3.065Zm0 11.979h.986v-8.083h-.986v8.083Zm-.994-10.977h2.974v1.891H9.992v-1.89Zm.493 11.979h1.988a.5.5 0 0 0 .501-.501v-8.585h.493a.5.5 0 0 0 .501-.5v-2.894a.5.5 0 0 0-.5-.5h-.494V9.484a.5.5 0 0 0-.5-.5h-1.99a.5.5 0 0 0-.5.5v3.567H9.49a.5.5 0 0 0-.501.501v2.893a.5.5 0 0 0 .5.501h.494v8.585a.5.5 0 0 0 .5.5Z" fill="#E7157B" fill-rule="evenodd"/></svg>
